**kern	**kern
*staff2	*staff1
*clefF4	*clefG2
*k[]	*k[]
*M3/4	*M3/4
*C:	*C:
=-	=-
4r	4g 4ee
=26	=26
[2.c [2.C	2g 2ee
.	4e 4cc
=27	=27
2c] 2C]	2a 2ff
4c 4C	4g 4ee
=28	=28
*^	*
2G	[2.C	2g 2ee
4B	.	4f 4dd
=29	=29	=29
2c	2C]	2e 2cc
*v	*v	*
4E	4g 4cc
=30	=30
2F	4a 4dd
.	2a 2dd 2ff
4D	.
=31	=31
*	*^
2G	2dd	2.f 2.b
4GG	4ee	.
*	*v	*v
=32	=32
4C	[2.e [2.g [2.cc
4GG	.
4EE	.
=33	=33
4CC	4e] 4g] 4cc]
4r	4r
=	=
*-	*-
